X: 1
T: BILLY O'ROURKE'S -- JIG
B: Ryan's Mammoth Collection of Fiddle Tunes
R: jig
M: 6/8
L: 1/8
Z: Contributed 20000421155739 by John Chambers jchambers:casc.com
K: EM
vg/e/ \
| dBB B>AB | dBB B>(gf/e/) | dBB B>(cB/A/) | GEE E2 vg/e/ |
| dBB B>AB | dBB g2(f/e/) | dBB BAB | GEE E2 :|
|: uf \
| g3 a3 | bge dcB | g2g aga | bge e>(fg/a/) |
| bag agf | gfe (e/f/g)e | dBB BAB | GEE E2 :|
